icons/breezeLight/actions/16/engraving.svg

<svg viewBox="0 0 16 16" xmlns="http://www.w3.org/2000/svg" xmlns:xlink="http://www.w3.org/1999/xlink"><linearGradient id="a" gradientUnits="userSpaceOnUse" x1="7" x2="10" y1="13.5" y2="4.5"><stop offset="0" stop-color="#4d4d4d"/><stop offset="1" stop-color="#4d4d4d" stop-opacity="0"/></linearGradient><path d="m3.5 2v2l3.5 9.5h1.8220339l3.6779661-9.5v-2" fill="none" stroke="#4d4d4d"/><path d="m3.5 2h9v2l-3.6779661 9.5h-1.8220339l-3.5-9.5z" fill="url(#a)" fill-rule="evenodd"/></svg>

<?xml version="1.0" encoding="UTF-8" standalone="no"?>
<svg
   xmlns:dc="http://purl.org/dc/elements/1.1/"
   xmlns:cc="http://creativecommons.org/ns#"
   xmlns:rdf="http://www.w3.org/1999/02/22-rdf-syntax-ns#"
   xmlns:svg="http://www.w3.org/2000/svg"
   xmlns="http://www.w3.org/2000/svg"
   xmlns:xlink="http://www.w3.org/1999/xlink"
   xmlns:sodipodi="http://sodipodi.sourceforge.net/DTD/sodipodi-0.dtd"
   xmlns:inkscape="http://www.inkscape.org/namespaces/inkscape"
   viewBox="0 0 16 16"
   version="1.1"
   id="svg6"
   sodipodi:docname="stroke-cap-square.svg"
   inkscape:version="0.92.4 (5da689c313, 2019-01-14)">
  <metadata
     id="metadata10">
    <rdf:RDF>
      <cc:Work
         rdf:about="">
        <dc:format>image/svg+xml</dc:format>
        <dc:type
           rdf:resource="http://purl.org/dc/dcmitype/StillImage" />
        <dc:title></dc:title>
      </cc:Work>
    </rdf:RDF>
  </metadata>
  <sodipodi:namedview
     pagecolor="#ffffff"
     bordercolor="#666666"
     borderopacity="1"
     objecttolerance="10"
     gridtolerance="10"
     guidetolerance="10"
     inkscape:pageopacity="0"
     inkscape:pageshadow="2"
     inkscape:window-width="1835"
     inkscape:window-height="1058"
     id="namedview8"
     showgrid="true"
     inkscape:zoom="59"
     inkscape:cx="7.0562414"
     inkscape:cy="8.8621413"
     inkscape:window-x="77"
     inkscape:window-y="-8"
     inkscape:window-maximized="1"
     inkscape:current-layer="svg6">
    <inkscape:grid
       type="xygrid"
       id="grid817"
       empspacing="4"
       spacingy="0.5"
       spacingx="0.5" />
  </sodipodi:namedview>
  <defs
     id="defs3051">
    <linearGradient
       inkscape:collect="always"
       id="linearGradient863">
      <stop
         style="stop-color:#4d4d4d;stop-opacity:1;"
         offset="0"
         id="stop859" />
      <stop
         style="stop-color:#4d4d4d;stop-opacity:0;"
         offset="1"
         id="stop861" />
    </linearGradient>
    <style
       type="text/css"
       id="current-color-scheme">
      .ColorScheme-Text {
        color:#4d4d4d;
      }
      </style>
    <linearGradient
       inkscape:collect="always"
       xlink:href="#linearGradient863"
       id="linearGradient865"
       x1="7"
       y1="13.5"
       x2="10"
       y2="4.5"
       gradientUnits="userSpaceOnUse" />
  </defs>
  <path
     style="fill:none;stroke:#4d4d4d;stroke-width:1px;stroke-linecap:butt;stroke-linejoin:miter;stroke-opacity:1"
     d="M 3.5,2 V 4 L 7,13.5 H 8.8220339 L 12.5,4 V 2"
     id="path819"
     inkscape:connector-curvature="0"
     sodipodi:nodetypes="cccccc" />
  <path
     style="fill:url(#linearGradient865);fill-opacity:1;fill-rule:evenodd;stroke:none;stroke-width:1;stroke-miterlimit:4;stroke-dasharray:none;stroke-opacity:1"
     d="m 3.5,2 h 9 V 4 L 8.8220339,13.5 H 7 L 3.5,4 Z"
     id="rect857"
     inkscape:connector-curvature="0"
     sodipodi:nodetypes="ccccccc" />
</svg>
